X:01
T: The Countess Cathleen
M: 9/8
K: Emin
D|:EBB BAG ADD|FGd dcB AGd|fgf dcB ABc|1 dDc DBD AGF:|2 dGe Gdc fga||
b2b bag fga|b2d cdg dga|b2b bag fga|b2d cdg dgb|
d'2d' c'ba bag|afd gec fBd|ecd BcA BGA|F/G/dG AGF G2||
T: Women Of The Sidhe
M: 6/8
K: Gmaj
|: egf edB |ebb eaa |egf ede |gfe deB |
egf edB |ebb eaa |egf ede |gfe e2 B :|
|:cda cgc |edc BcA |cGc Acd |edc ABc |
cda cgc |edc BcA |cGc ABc |1dec d2 B :|2deB d z2 ||
